icons/folder-dist-open.svg

<?xml version="1.0" encoding="UTF-8"?>
<svg clip-rule="evenodd" stroke-linejoin="round" stroke-miterlimit="1.4142" version="1.1" viewBox="0 0 24 24" xml:space="preserve" xmlns="http://www.w3.org/2000/svg"><path d="m19 20h-15c-1.11 0-2-0.9-2-2v-12c0-1.11 0.89-2 2-2h6l2 2h7c1.097 0 2 0.903 2 2h-17v10l2.14-8h17.07l-2.28 8.5c-0.23 0.87-1.01 1.5-1.93 1.5z" fill="#45403d"/><path d="m18.575 11.113h-2.5763v-1.2881h2.5763m3.8644 1.2881h-2.5763v-1.2881l-1.2881-1.2881h-2.5763l-1.2881 1.2881v1.2881h-2.5763c-0.71492 0-1.2881 0.57322-1.2881 1.2881v7.0847a1.2881 1.2881 0 0 0 1.2881 1.2881h10.305a1.2881 1.2881 0 0 0 1.2881 -1.2881v-7.0847c0-0.71492-0.57966-1.2881-1.2881-1.2881z" clip-rule="evenodd" fill="#ea6962" fill-rule="evenodd" stroke-linejoin="round" stroke-miterlimit="1.4142" stroke-width=".64407"/></svg>

<svg clip-rule="evenodd" stroke-linejoin="round" stroke-miterlimit="1.414" viewBox="0 0 24 24" xml:space="preserve" xmlns="http://www.w3.org/2000/svg"><path d="M19 20H4a2 2 0 0 1-2-2V6c0-1.11.89-2 2-2h6l2 2h7c1.097 0 2 .903 2 2H4v10l2.14-8h17.07l-2.28 8.5c-.23.87-1.01 1.5-1.93 1.5z" fill="#e57373"/><path d="M18.575 11.113h-2.576V9.825h2.576m3.864 1.288h-2.576V9.825l-1.288-1.288h-2.576L14.71 9.825v1.288h-2.577c-.715 0-1.288.573-1.288 1.288v7.085a1.288 1.288 0 0 0 1.288 1.288H22.44a1.288 1.288 0 0 0 1.288-1.288V12.4c0-.715-.58-1.288-1.288-1.288z" fill="#ffcdd2" fill-rule="evenodd"/></svg>
